CN5T1/178/aimg/esofagoestomago.svg

<svg clip-rule="evenodd" fill-rule="evenodd" stroke-linejoin="round" stroke-miterlimit="2" viewBox="0 0 163 423" xmlns="http://www.w3.org/2000/svg"><g transform="translate(-993.1405 -2173.47817)"><g transform="matrix(4.73969 0 0 4.73969 1001.01 2435.73)"><path d="m0 32.097c.249-.397 1.477-1.362 2.154-1.92.743-.613 1.513-1.193 2.288-1.761.573-.42.86-.926.826-1.664-.052-1.076-.059-2.158-.009-3.234.025-.522.15-1.064.352-1.546.524-1.253 1.265-2.382 2.181-3.384 1.32-1.441 2.988-2.236 4.888-2.607.367-.072.719-.257 1.063-.422.653-.316.857-.885.699-1.545-.116-.48-.321-.947-.554-1.385-.25-.476-.563-.921-.874-1.36-1.54-2.166-.251-4.501 2.019-6.102.125-.088-.586-5.364-4.58-5.974-7.98-1.219-11.807-6.597-11.172-18.991.193-3.778 5.958-6.02 6.097 0 .147 6.296-.869 14.025 6.014 14.636 6.711.595 8.236 8.548 8.927 8.815 1.073.417 2.133.93 3.248 1.157 2.261.462 4.179 1.597 5.971 2.918 1.486 1.095 2.231 2.744 2.326 4.596.081 1.575.033 3.157.021 4.737-.012 1.601-.436 3.108-1.01 4.597-.762 1.977-1.985 3.653-3.383 5.183-1.746 1.913-3.95 3.178-6.416 3.957-1.064.337-2.149.602-3.226.894-1.556.421-3.099.541-4.627-.158-.874-.4-1.767-.768-2.674-1.087-2.174-.765-4.277-.863-6.226.681-.75.595-1.578 1.1-2.402 1.594-.683.41-.698.372-1.264-.163-.14-.133-.799-.235-.657-.462z" fill="#f8c1d9" fill-rule="nonzero"/><path d="m14.269 4.802c-.079-.534-.326-1.527-.852-2.491-.59-1.082-1.542-2.145-3.077-2.38-3.38-.516-6.048-1.755-7.999-3.874-2.866-3.111-4.201-8.186-3.807-15.894.083-1.61 1.016-2.988 2.19-3.756.828-.541 1.773-.776 2.629-.63 1.389.237 2.704 1.471 2.773 4.407.072 3.1-.153 6.553.462 9.305.553 2.471 1.829 4.334 4.87 4.604 5.033.446 7.391 4.701 8.578 7.344.293.654.625 1.369.726 1.588.975.388 1.94.846 2.955 1.053 2.37.484 4.386 1.664 6.264 3.048 1.671 1.231 2.522 3.078 2.629 5.16.082 1.589.034 3.186.022 4.781-.012 1.692-.453 3.286-1.06 4.86-.796 2.065-2.068 3.82-3.528 5.418-1.836 2.011-4.15 3.346-6.742 4.165-1.074.341-2.169.608-3.257.903-1.726.467-3.437.576-5.133-.2-.853-.39-1.725-.75-2.611-1.061-1.924-.677-3.789-.805-5.514.561-.775.616-1.63 1.139-2.481 1.65-.578.347-.906.413-1.177.37-.243-.038-.506-.188-.921-.571-.086-.033-.328-.128-.441-.189-.177-.096-.305-.217-.383-.331-.194-.283-.236-.593-.017-.943.27-.429 1.579-1.495 2.311-2.098.754-.622 1.536-1.211 2.322-1.788.355-.26.543-.569.522-1.025-.054-1.099-.061-2.205-.009-3.306.029-.607.174-1.238.409-1.798.557-1.333 1.344-2.534 2.319-3.601 1.431-1.562 3.235-2.433 5.295-2.835.307-.06.597-.225.882-.362.292-.141.368-.403.298-.696-.102-.42-.284-.827-.49-1.214-.234-.446-.53-.863-.821-1.274-1.714-2.411-.553-5.046 1.864-6.9zm-14.269 27.295c.25-.397 1.477-1.362 2.154-1.92.743-.613 1.513-1.193 2.288-1.761.573-.42.86-.926.826-1.664-.052-1.076-.059-2.158-.009-3.234.025-.522.15-1.064.352-1.546.524-1.253 1.265-2.382 2.181-3.384 1.32-1.441 2.988-2.236 4.888-2.607.367-.072.719-.257 1.063-.422.653-.316.857-.885.699-1.545-.116-.48-.321-.947-.554-1.385-.25-.476-.563-.921-.874-1.36-1.54-2.166-.251-4.501 2.019-6.102.125-.088-.586-5.364-4.58-5.974-7.98-1.219-11.807-6.597-11.172-18.991.193-3.778 5.958-6.02 6.097 0 .147 6.296-.869 14.025 6.014 14.636 6.711.595 8.236 8.548 8.927 8.815 1.073.417 2.133.93 3.248 1.157 2.261.462 4.179 1.597 5.971 2.918 1.486 1.095 2.231 2.744 2.326 4.596.081 1.575.033 3.157.021 4.737-.012 1.601-.436 3.108-1.01 4.597-.762 1.977-1.985 3.653-3.383 5.183-1.746 1.913-3.95 3.178-6.416 3.957-1.064.337-2.149.602-3.226.894-1.556.421-3.099.541-4.627-.158-.874-.4-1.767-.768-2.674-1.087-2.174-.765-4.277-.863-6.226.681-.75.595-1.578 1.1-2.402 1.594-.683.41-.698.372-1.264-.163-.14-.133-.799-.235-.657-.462z"/></g><path d="m1119 2460.22c8.07 2.7 15.23 7.14 22.01 12.14 7.04 5.19 10.58 13.01 11.03 21.78.38 7.47.15 14.97.09 22.46-.05 7.58-2.06 14.73-4.78 21.78-3.61 9.37-9.41 17.32-16.04 24.57-8.27 9.07-18.72 15.06-30.41 18.75-5.04 1.6-10.18 2.86-15.29 4.24-7.37 2-14.68 2.57-21.93-.75-4.14-1.89-8.37-3.64-12.67-5.15-10.31-3.63-20.27-4.09-29.51 3.23-3.55 2.82-7.48 5.21-11.38 7.55-2.65 1.59-3.18 1.76-4.76.38 25.99-26.07 25-14.32 65.69-20.92 33.03-5.35 48.95-66.37 47.95-110.06z" fill="#f287b7" fill-rule="nonzero"/><path d="m1115.46 2460.3c.58 25.67-4.75 57.46-16.13 79.91-7.17 14.13-16.63 24.6-28.84 26.58-16.09 2.6-25.58 2.3-32.83 2.66-11.75.58-18.15 2.54-34.81 19.25l.17 5.16c1.34 1.17 2.42 1.64 3.47 1.77 1.25.17 2.78-.17 5.45-1.77 4.03-2.42 8.09-4.9 11.76-7.82 8.17-6.47 17.01-5.87 26.13-2.66 4.2 1.48 8.33 3.18 12.38 5.03 8.04 3.68 16.15 3.17 24.33.95 5.15-1.4 10.34-2.67 15.43-4.28 12.29-3.88 23.26-10.21 31.96-19.74 6.92-7.58 12.95-15.89 16.72-25.68 2.88-7.46 4.97-15.02 5.03-23.04.05-7.56.28-15.12-.11-22.66-.5-9.86-4.54-18.62-12.46-24.45-7.08-5.22-14.57-9.83-22.99-12.65zm3.54-.08c8.07 2.7 15.23 7.14 22.01 12.14 7.04 5.19 10.58 13.01 11.03 21.78.38 7.47.15 14.97.09 22.46-.05 7.58-2.06 14.73-4.78 21.78-3.61 9.37-9.41 17.32-16.04 24.57-8.27 9.07-18.72 15.06-30.41 18.75-5.04 1.6-10.18 2.86-15.29 4.24-7.37 2-14.68 2.57-21.93-.75-4.14-1.89-8.37-3.64-12.67-5.15-10.31-3.63-20.27-4.09-29.51 3.23-3.55 2.82-7.48 5.21-11.38 7.55-2.65 1.59-3.18 1.76-4.76.38 25.99-26.07 25-14.32 65.69-20.92 33.03-5.35 48.95-66.37 47.95-110.06z"/><path d="m33.646 20.429c.075.005.149.011.223.017.09-.29.195-.577.264-.872.434-1.833.856-3.67 1.291-5.504.182-.764.487-1.448 1.183-1.912.488-.325.644-.802.585-1.405-.079-.803-.085-1.615-.085-2.423-.002-4.507.007-9.014.012-13.52.001-.308-.013-.617-.004-.924.015-.418-.232-.646-.579-.764-.25-.085-.525-.133-.789-.135-1.308-.012-2.618-.024-3.927.01-.369.009-.734.178-1.103.267-.377.09-.461.364-.446.701.01.192.031.383.039.576.123 2.652.267 5.305.358 7.958.049 1.424.009 2.85.01 4.276.001 1.425 0 2.85.005 4.275.002.422-.048.882.36 1.16.694.471.955 1.181 1.138 1.938.217.899.415 1.8.624 2.7.278 1.193.56 2.387.841 3.581z" fill="#231f20" transform="matrix(5.00274 0 0 -4.69261 842.8219 2312.862)"/><path d="m0 27.456c-.282-1.194-.563-2.388-.842-3.582-.21-.899-.408-1.801-.625-2.699-.182-.758-.443-1.469-1.137-1.941-.409-.277-.359-.737-.361-1.16-.004-1.425-.003-2.85-.004-4.276s.039-2.853-.011-4.277c-.092-2.654-.234-5.307-.358-7.96-.008-.192-.029-.384-.038-.577-.017-.336.067-.61.445-.701.37-.089.735-.257 1.103-.267 1.31-.034 2.62-.022 3.929-.01.264.003.539.05.788.135.348.118.594.346.581.764-.01.309.005.616.004.925-.005 4.509-.015 9.016-.013 13.525 0 .808.007 1.62.086 2.423.058.604-.098 1.08-.586 1.405-.696.464-1.002 1.149-1.183 1.914-.436 1.833-.857 3.67-1.291 5.505-.069.295-.176.581-.265.872-.074-.006-.149-.012-.222-.018" fill="#f287b7" fill-rule="nonzero" transform="matrix(4.16667 0 0 -4.16667 1011.6719 2341.872)"/><path d="m33.646 20.429c.075.005.149.011.223.017.09-.29.195-.577.264-.872.434-1.833.856-3.67 1.291-5.504.182-.764.487-1.448 1.183-1.912.488-.325.644-.802.585-1.405-.079-.803-.085-1.615-.085-2.423-.002-4.507.007-9.014.012-13.52.001-.308-.013-.617-.004-.924.015-.418-.232-.646-.579-.764-.25-.085-.525-.133-.789-.135-1.308-.012-2.618-.024-3.927.01-.369.009-.734.178-1.103.267-.377.09-.461.364-.446.701.01.192.031.383.039.576.123 2.652.267 5.305.358 7.958.049 1.424.009 2.85.01 4.276.001 1.425 0 2.85.005 4.275.002.422-.048.882.36 1.16.694.471.955 1.181 1.138 1.938.217.899.415 1.8.624 2.7.278 1.193.56 2.387.841 3.581z" fill="#231f20" transform="matrix(5.00274 0 0 4.69261 842.8219 2206.628)"/><path d="m0 27.456c-.282-1.194-.563-2.388-.842-3.582-.21-.899-.408-1.801-.625-2.699-.182-.758-.443-1.469-1.137-1.941-.409-.277-.359-.737-.361-1.16-.004-1.425-.003-2.85-.004-4.276s.039-2.853-.011-4.277c-.092-2.654-.234-5.307-.358-7.96-.008-.192-.029-.384-.038-.577-.017-.336.067-.61.445-.701.37-.089.735-.257 1.103-.267 1.31-.034 2.62-.022 3.929-.01.264.003.539.05.788.135.348.118.594.346.581.764-.01.309.005.616.004.925-.005 4.509-.015 9.016-.013 13.525 0 .808.007 1.62.086 2.423.058.604-.098 1.08-.586 1.405-.696.464-1.002 1.149-1.183 1.914-.436 1.833-.857 3.67-1.291 5.505-.069.295-.176.581-.265.872-.074-.006-.149-.012-.222-.018" fill="#f9b3dd" fill-rule="nonzero" transform="matrix(4.16667 0 0 4.16667 1011.6719 2177.618)"/></g></svg>

<?xml version="1.0" encoding="UTF-8" standalone="no"?>
<!DOCTYPE svg PUBLIC "-//W3C//DTD SVG 1.1//EN" "http://www.w3.org/Graphics/SVG/1.1/DTD/svg11.dtd">
<svg width="100%" height="100%" viewBox="0 0 163 423" version="1.1" xmlns="http://www.w3.org/2000/svg" xmlns:xlink="http://www.w3.org/1999/xlink" xml:space="preserve" xmlns:serif="http://www.serif.com/" style="fill-rule:evenodd;clip-rule:evenodd;stroke-linejoin:round;stroke-miterlimit:2;">
    <g transform="matrix(1,0,0,1,-894,-2183)">
        <g id="esofagoestomago" transform="matrix(1,0,0,1,-99.1405,9.52183)">
            <g transform="matrix(4.73969,0,0,4.73969,1001.01,2435.73)">
                <path d="M0,32.097C0.249,31.7 1.477,30.735 2.154,30.177C2.897,29.564 3.667,28.984 4.442,28.416C5.015,27.996 5.302,27.49 5.268,26.752C5.216,25.676 5.209,24.594 5.259,23.518C5.284,22.996 5.409,22.454 5.611,21.972C6.135,20.719 6.876,19.59 7.792,18.588C9.112,17.147 10.78,16.352 12.68,15.981C13.047,15.909 13.399,15.724 13.743,15.559C14.396,15.243 14.6,14.674 14.442,14.014C14.326,13.534 14.121,13.067 13.888,12.629C13.638,12.153 13.325,11.708 13.014,11.269C11.474,9.103 12.763,6.768 15.033,5.167C15.158,5.079 14.447,-0.197 10.453,-0.807C2.473,-2.026 -1.354,-7.404 -0.719,-19.798C-0.526,-23.576 5.239,-25.818 5.378,-19.798C5.525,-13.502 4.509,-5.773 11.392,-5.162C18.103,-4.567 19.628,3.386 20.319,3.653C21.392,4.07 22.452,4.583 23.567,4.81C25.828,5.272 27.746,6.407 29.538,7.728C31.024,8.823 31.769,10.472 31.864,12.324C31.945,13.899 31.897,15.481 31.885,17.061C31.873,18.662 31.449,20.169 30.875,21.658C30.113,23.635 28.89,25.311 27.492,26.841C25.746,28.754 23.542,30.019 21.076,30.798C20.012,31.135 18.927,31.4 17.85,31.692C16.294,32.113 14.751,32.233 13.223,31.534C12.349,31.134 11.456,30.766 10.549,30.447C8.375,29.682 6.272,29.584 4.323,31.128C3.573,31.723 2.745,32.228 1.921,32.722C1.238,33.132 1.223,33.094 0.657,32.559C0.517,32.426 -0.142,32.324 0,32.097Z" style="fill:rgb(248,193,217);fill-rule:nonzero;"/>
                <path d="M14.269,4.802C14.19,4.268 13.943,3.275 13.417,2.311C12.827,1.229 11.875,0.166 10.34,-0.069C6.96,-0.585 4.292,-1.824 2.341,-3.943C-0.525,-7.054 -1.86,-12.129 -1.466,-19.837C-1.383,-21.447 -0.45,-22.825 0.724,-23.593C1.552,-24.134 2.497,-24.369 3.353,-24.223C4.742,-23.986 6.057,-22.752 6.126,-19.816C6.198,-16.716 5.973,-13.263 6.588,-10.511C7.141,-8.04 8.417,-6.177 11.458,-5.907C16.491,-5.461 18.849,-1.206 20.036,1.437C20.329,2.091 20.661,2.806 20.762,3.025C21.737,3.413 22.702,3.871 23.717,4.078C26.087,4.562 28.103,5.742 29.981,7.126C31.652,8.357 32.503,10.204 32.61,12.286C32.692,13.875 32.644,15.472 32.632,17.067C32.62,18.759 32.179,20.353 31.572,21.927C30.776,23.992 29.504,25.747 28.044,27.345C26.208,29.356 23.894,30.691 21.302,31.51C20.228,31.851 19.133,32.118 18.045,32.413C16.319,32.88 14.608,32.989 12.912,32.213C12.059,31.823 11.187,31.463 10.301,31.152C8.377,30.475 6.512,30.347 4.787,31.713C4.012,32.329 3.157,32.852 2.306,33.363C1.728,33.71 1.4,33.776 1.129,33.733C0.886,33.695 0.623,33.545 0.208,33.162C0.122,33.129 -0.12,33.034 -0.233,32.973C-0.41,32.877 -0.538,32.756 -0.616,32.642C-0.81,32.359 -0.852,32.049 -0.633,31.699C-0.363,31.27 0.946,30.204 1.678,29.601C2.432,28.979 3.214,28.39 4,27.813C4.355,27.553 4.543,27.244 4.522,26.788C4.468,25.689 4.461,24.583 4.513,23.482C4.542,22.875 4.687,22.244 4.922,21.684C5.479,20.351 6.266,19.15 7.241,18.083C8.672,16.521 10.476,15.65 12.536,15.248C12.843,15.188 13.133,15.023 13.418,14.886C13.71,14.745 13.786,14.483 13.716,14.19C13.614,13.77 13.432,13.363 13.226,12.976C12.992,12.53 12.696,12.113 12.405,11.702C10.691,9.291 11.852,6.656 14.269,4.802ZM0,32.097C0.25,31.7 1.477,30.735 2.154,30.177C2.897,29.564 3.667,28.984 4.442,28.416C5.015,27.996 5.302,27.49 5.268,26.752C5.216,25.676 5.209,24.594 5.259,23.518C5.284,22.996 5.409,22.454 5.611,21.972C6.135,20.719 6.876,19.59 7.792,18.588C9.112,17.147 10.78,16.352 12.68,15.981C13.047,15.909 13.399,15.724 13.743,15.559C14.396,15.243 14.6,14.674 14.442,14.014C14.326,13.534 14.121,13.067 13.888,12.629C13.638,12.153 13.325,11.708 13.014,11.269C11.474,9.103 12.763,6.768 15.033,5.167C15.158,5.079 14.447,-0.197 10.453,-0.807C2.473,-2.026 -1.354,-7.404 -0.719,-19.798C-0.526,-23.576 5.239,-25.818 5.378,-19.798C5.525,-13.502 4.509,-5.773 11.392,-5.162C18.103,-4.567 19.628,3.386 20.319,3.653C21.392,4.07 22.452,4.583 23.567,4.81C25.828,5.272 27.746,6.407 29.538,7.728C31.024,8.823 31.769,10.472 31.864,12.324C31.945,13.899 31.897,15.481 31.885,17.061C31.873,18.662 31.449,20.169 30.875,21.658C30.113,23.635 28.89,25.311 27.492,26.841C25.746,28.754 23.542,30.019 21.076,30.798C20.012,31.135 18.927,31.4 17.85,31.692C16.294,32.113 14.751,32.233 13.223,31.534C12.349,31.134 11.456,30.766 10.549,30.447C8.375,29.682 6.272,29.584 4.323,31.128C3.573,31.723 2.745,32.228 1.921,32.722C1.238,33.132 1.223,33.094 0.657,32.559C0.517,32.426 -0.142,32.324 0,32.097Z"/>
            </g>
            <path d="M1119,2460.22C1127.07,2462.92 1134.23,2467.36 1141.01,2472.36C1148.05,2477.55 1151.59,2485.37 1152.04,2494.14C1152.42,2501.61 1152.19,2509.11 1152.13,2516.6C1152.08,2524.18 1150.07,2531.33 1147.35,2538.38C1143.74,2547.75 1137.94,2555.7 1131.31,2562.95C1123.04,2572.02 1112.59,2578.01 1100.9,2581.7C1095.86,2583.3 1090.72,2584.56 1085.61,2585.94C1078.24,2587.94 1070.93,2588.51 1063.68,2585.19C1059.54,2583.3 1055.31,2581.55 1051.01,2580.04C1040.7,2576.41 1030.74,2575.95 1021.5,2583.27C1017.95,2586.09 1014.02,2588.48 1010.12,2590.82C1007.47,2592.41 1006.94,2592.58 1005.36,2591.2C1031.35,2565.13 1030.36,2576.88 1071.05,2570.28C1104.08,2564.93 1120,2503.91 1119,2460.22Z" style="fill:rgb(242,135,183);fill-rule:nonzero;"/>
            <path d="M1115.46,2460.3C1116.04,2485.97 1110.71,2517.76 1099.33,2540.21C1092.16,2554.34 1082.7,2564.81 1070.49,2566.79C1054.4,2569.39 1044.91,2569.09 1037.66,2569.45C1025.91,2570.03 1019.51,2571.99 1002.85,2588.7L1003.02,2593.86C1004.36,2595.03 1005.44,2595.5 1006.49,2595.63C1007.74,2595.8 1009.27,2595.46 1011.94,2593.86C1015.97,2591.44 1020.03,2588.96 1023.7,2586.04C1031.87,2579.57 1040.71,2580.17 1049.83,2583.38C1054.03,2584.86 1058.16,2586.56 1062.21,2588.41C1070.25,2592.09 1078.36,2591.58 1086.54,2589.36C1091.69,2587.96 1096.88,2586.69 1101.97,2585.08C1114.26,2581.2 1125.23,2574.87 1133.93,2565.34C1140.85,2557.76 1146.88,2549.45 1150.65,2539.66C1153.53,2532.2 1155.62,2524.64 1155.68,2516.62C1155.73,2509.06 1155.96,2501.5 1155.57,2493.96C1155.07,2484.1 1151.03,2475.34 1143.11,2469.51C1136.03,2464.29 1128.54,2459.68 1120.12,2456.86L1115.46,2460.3ZM1119,2460.22C1127.07,2462.92 1134.23,2467.36 1141.01,2472.36C1148.05,2477.55 1151.59,2485.37 1152.04,2494.14C1152.42,2501.61 1152.19,2509.11 1152.13,2516.6C1152.08,2524.18 1150.07,2531.33 1147.35,2538.38C1143.74,2547.75 1137.94,2555.7 1131.31,2562.95C1123.04,2572.02 1112.59,2578.01 1100.9,2581.7C1095.86,2583.3 1090.72,2584.56 1085.61,2585.94C1078.24,2587.94 1070.93,2588.51 1063.68,2585.19C1059.54,2583.3 1055.31,2581.55 1051.01,2580.04C1040.7,2576.41 1030.74,2575.95 1021.5,2583.27C1017.95,2586.09 1014.02,2588.48 1010.12,2590.82C1007.47,2592.41 1006.94,2592.58 1005.36,2591.2C1031.35,2565.13 1030.36,2576.88 1071.05,2570.28C1104.08,2564.93 1120,2503.91 1119,2460.22Z"/>
            <g id="esofago" transform="matrix(1,0,0,1,-90.4311,-257.298)">
                <g transform="matrix(1,0,0,-1,-126.587,4734.46)">
                    <g transform="matrix(5.00274,0,0,4.69261,1059.84,2164.3)">
                        <path d="M33.646,20.429C33.721,20.434 33.795,20.44 33.869,20.446C33.959,20.156 34.064,19.869 34.133,19.574C34.567,17.741 34.989,15.904 35.424,14.07C35.606,13.306 35.911,12.622 36.607,12.158C37.095,11.833 37.251,11.356 37.192,10.753C37.113,9.95 37.107,9.138 37.107,8.33C37.105,3.823 37.114,-0.684 37.119,-5.19C37.12,-5.498 37.106,-5.807 37.115,-6.114C37.13,-6.532 36.883,-6.76 36.536,-6.878C36.286,-6.963 36.011,-7.011 35.747,-7.013C34.439,-7.025 33.129,-7.037 31.82,-7.003C31.451,-6.994 31.086,-6.825 30.717,-6.736C30.34,-6.646 30.256,-6.372 30.271,-6.035C30.281,-5.843 30.302,-5.652 30.31,-5.459C30.433,-2.807 30.577,-0.154 30.668,2.499C30.717,3.923 30.677,5.349 30.678,6.775C30.679,8.2 30.678,9.625 30.683,11.05C30.685,11.472 30.635,11.932 31.043,12.21C31.737,12.681 31.998,13.391 32.181,14.148C32.398,15.047 32.596,15.948 32.805,16.848C33.083,18.041 33.365,19.235 33.646,20.429Z" style="fill:rgb(35,31,32);"/>
                    </g>
                    <g transform="matrix(4.16667,0,0,4.16667,1228.69,2135.29)">
                        <path d="M0,27.456C-0.282,26.262 -0.563,25.068 -0.842,23.874C-1.052,22.975 -1.25,22.073 -1.467,21.175C-1.649,20.417 -1.91,19.706 -2.604,19.234C-3.013,18.957 -2.963,18.497 -2.965,18.074C-2.969,16.649 -2.968,15.224 -2.969,13.798C-2.97,12.372 -2.93,10.945 -2.98,9.521C-3.072,6.867 -3.214,4.214 -3.338,1.561C-3.346,1.369 -3.367,1.177 -3.376,0.984C-3.393,0.648 -3.309,0.374 -2.931,0.283C-2.561,0.194 -2.196,0.026 -1.828,0.016C-0.518,-0.018 0.792,-0.006 2.101,0.006C2.365,0.009 2.64,0.056 2.889,0.141C3.237,0.259 3.483,0.487 3.47,0.905C3.46,1.214 3.475,1.521 3.474,1.83C3.469,6.339 3.459,10.846 3.461,15.355C3.461,16.163 3.468,16.975 3.547,17.778C3.605,18.382 3.449,18.858 2.961,19.183C2.265,19.647 1.959,20.332 1.778,21.097C1.342,22.93 0.921,24.767 0.487,26.602C0.418,26.897 0.311,27.183 0.222,27.474C0.148,27.468 0.073,27.462 0,27.456" style="fill:rgb(242,135,183);fill-rule:nonzero;"/>
                    </g>
                </g>
                <g transform="matrix(1,0,0,1,-126.587,299.626)">
                    <g transform="matrix(5.00274,0,0,4.69261,1059.84,2164.3)">
                        <path d="M33.646,20.429C33.721,20.434 33.795,20.44 33.869,20.446C33.959,20.156 34.064,19.869 34.133,19.574C34.567,17.741 34.989,15.904 35.424,14.07C35.606,13.306 35.911,12.622 36.607,12.158C37.095,11.833 37.251,11.356 37.192,10.753C37.113,9.95 37.107,9.138 37.107,8.33C37.105,3.823 37.114,-0.684 37.119,-5.19C37.12,-5.498 37.106,-5.807 37.115,-6.114C37.13,-6.532 36.883,-6.76 36.536,-6.878C36.286,-6.963 36.011,-7.011 35.747,-7.013C34.439,-7.025 33.129,-7.037 31.82,-7.003C31.451,-6.994 31.086,-6.825 30.717,-6.736C30.34,-6.646 30.256,-6.372 30.271,-6.035C30.281,-5.843 30.302,-5.652 30.31,-5.459C30.433,-2.807 30.577,-0.154 30.668,2.499C30.717,3.923 30.677,5.349 30.678,6.775C30.679,8.2 30.678,9.625 30.683,11.05C30.685,11.472 30.635,11.932 31.043,12.21C31.737,12.681 31.998,13.391 32.181,14.148C32.398,15.047 32.596,15.948 32.805,16.848C33.083,18.041 33.365,19.235 33.646,20.429Z" style="fill:rgb(35,31,32);"/>
                    </g>
                    <g transform="matrix(4.16667,0,0,4.16667,1228.69,2135.29)">
                        <path d="M0,27.456C-0.282,26.262 -0.563,25.068 -0.842,23.874C-1.052,22.975 -1.25,22.073 -1.467,21.175C-1.649,20.417 -1.91,19.706 -2.604,19.234C-3.013,18.957 -2.963,18.497 -2.965,18.074C-2.969,16.649 -2.968,15.224 -2.969,13.798C-2.97,12.372 -2.93,10.945 -2.98,9.521C-3.072,6.867 -3.214,4.214 -3.338,1.561C-3.346,1.369 -3.367,1.177 -3.376,0.984C-3.393,0.648 -3.309,0.374 -2.931,0.283C-2.561,0.194 -2.196,0.026 -1.828,0.016C-0.518,-0.018 0.792,-0.006 2.101,0.006C2.365,0.009 2.64,0.056 2.889,0.141C3.237,0.259 3.483,0.487 3.47,0.905C3.46,1.214 3.475,1.521 3.474,1.83C3.469,6.339 3.459,10.846 3.461,15.355C3.461,16.163 3.468,16.975 3.547,17.778C3.605,18.382 3.449,18.858 2.961,19.183C2.265,19.647 1.959,20.332 1.778,21.097C1.342,22.93 0.921,24.767 0.487,26.602C0.418,26.897 0.311,27.183 0.222,27.474C0.148,27.468 0.073,27.462 0,27.456" style="fill:rgb(249,179,221);fill-rule:nonzero;"/>
                    </g>
                </g>
            </g>
        </g>
    </g>
</svg>
